X:249
T:Patricks Day in the Morning   
O:No 249 Wm Clarke of Feltwell 
M:6/8
L:1/8
K:C
G| cdc cde| gc'a gec| dcd edc | ABA A2 G| cdc cde |gc'a gec| dcd edc| A2 B c2:|| 
: g| gab c'2 a| b2 g age| gab c'2 b| a2 g a2 g| gab c'2 b| a2 g abc'|cdc cde| gc'a gec| dcd edc | ABA A2G| cdc cde| gc'a gec| dcd edc| A2 B c2:!D.C.!|| 

